X:15213
T:September Reel
M:C|
L:1/8
Q:230
C:Michael McGoldrick
R:reel
D:Michael McGoldrick: Morning Rory
Z:Devin McCabe
K:BMin
F~B3 BAFE|FDBA FEED|~F3D EFDE|FDAF FEED|
!F~B3 BAFE|FDBA FEFA|B2BA FBAF|EFDE FDD2:|
!:~F3E FABd|~B3A BdBA|~B3d ~B3d|AFDE FEED|
!~F2FE FABd|~B3A Bded|f2fe edBA|FBBA FEDE:|
